public/assets/img/mission1.svg

<svg width="53" height="53" viewBox="0 0 53 53" fill="none" xmlns="http://www.w3.org/2000/svg">
<path d="M47.871 28.6627V11.8994C50.7663 11.4822 53 8.99205 53 5.98387C53 2.68505 50.3158 0 47.0161 0C43.7165 0 41.0323 2.68505 41.0323 5.98387H0V40.1774H25.6888C26.1333 47.3205 32.0701 53 39.3226 53C46.864 53 53 46.864 53 39.3226C53 35.015 50.9937 31.1717 47.871 28.6627ZM47.0161 1.70968C49.3729 1.70968 51.2903 3.62708 51.2903 5.98387C51.2903 8.34066 49.3729 10.2581 47.0161 10.2581C44.6593 10.2581 42.7419 8.34066 42.7419 5.98387C42.7419 3.62708 44.6593 1.70968 47.0161 1.70968ZM1.70968 7.69355H41.2844C41.4887 8.37571 41.8136 9.00402 42.2307 9.56137L37.0025 14.7896C36.6674 14.6289 36.2982 14.5323 35.9032 14.5323C35.5083 14.5323 35.139 14.6289 34.8048 14.7896L33.0823 13.0671C33.2421 12.732 33.3387 12.3627 33.3387 11.9677C33.3387 10.5538 32.1881 9.40323 30.7742 9.40323C29.3603 9.40323 28.2097 10.5538 28.2097 11.9677C28.2097 12.3627 28.3063 12.732 28.467 13.0662L24.18 17.3532C23.8449 17.1934 23.4756 17.0968 23.0806 17.0968C21.6667 17.0968 20.5161 18.2474 20.5161 19.6613C20.5161 21.0752 21.6667 22.2258 23.0806 22.2258C24.4945 22.2258 25.6452 21.0752 25.6452 19.6613C25.6452 19.2664 25.5486 18.8971 25.3879 18.5628L29.6749 14.2758C30.01 14.4357 30.3793 14.5323 30.7742 14.5323C31.1691 14.5323 31.5384 14.4357 31.8727 14.275L33.5952 15.9975C33.4353 16.3326 33.3387 16.7018 33.3387 17.0968C33.3387 18.5107 34.4893 19.6613 35.9032 19.6613C37.3171 19.6613 38.4677 18.5107 38.4677 17.0968C38.4677 16.7018 38.3711 16.3325 38.2104 15.9983L43.4395 10.7701C44.2217 11.3565 45.15 11.754 46.1613 11.9002V27.4967C44.1464 26.3265 41.8153 25.6452 39.3226 25.6452C35.2365 25.6452 31.5726 27.4557 29.0645 30.3066V26.5H23.9355V36.7581H25.8948C25.7888 37.3163 25.7247 37.8882 25.6888 38.4677H1.70968V7.69355ZM35.9032 16.2419C36.3742 16.2419 36.7581 16.6249 36.7581 17.0968C36.7581 17.5686 36.3742 17.9516 35.9032 17.9516C35.4322 17.9516 35.0484 17.5686 35.0484 17.0968C35.0484 16.6249 35.4322 16.2419 35.9032 16.2419ZM29.9194 11.9677C29.9194 11.4959 30.3032 11.1129 30.7742 11.1129C31.2452 11.1129 31.629 11.4959 31.629 11.9677C31.629 12.4396 31.2452 12.8226 30.7742 12.8226C30.3032 12.8226 29.9194 12.4396 29.9194 11.9677ZM23.9355 19.6613C23.9355 20.1332 23.5517 20.5161 23.0806 20.5161C22.6096 20.5161 22.2258 20.1332 22.2258 19.6613C22.2258 19.1894 22.6096 18.8065 23.0806 18.8065C23.5517 18.8065 23.9355 19.1894 23.9355 19.6613ZM39.3226 46.1613C35.5519 46.1613 32.4839 43.0933 32.4839 39.3226C32.4839 35.5519 35.5519 32.4839 39.3226 32.4839C43.0933 32.4839 46.1613 35.5519 46.1613 39.3226C46.1613 43.0933 43.0933 46.1613 39.3226 46.1613ZM27.3548 32.7155C26.9454 33.4541 26.6069 34.2346 26.3384 35.0484H25.6452V28.2097H27.3548V32.7155ZM38.4677 27.3984V30.8178C34.1542 31.2486 30.7742 34.8979 30.7742 39.3226C30.7742 40.5732 31.0512 41.7589 31.5359 42.8308L28.5704 44.5431C27.7994 42.9633 27.3548 41.1955 27.3548 39.3226C27.3548 33.0122 32.2676 27.8395 38.4677 27.3984ZM39.3226 51.2903C35.2074 51.2903 31.5709 49.202 29.4167 46.0288L32.3941 44.3097C33.9482 46.4622 36.4708 47.871 39.3226 47.871C42.1743 47.871 44.697 46.4622 46.251 44.3097L49.2285 46.0288C47.0743 49.202 43.4378 51.2903 39.3226 51.2903ZM50.0747 44.5431L47.1093 42.8308C47.594 41.7589 47.871 40.5732 47.871 39.3226C47.871 34.8979 44.4909 31.2478 40.1774 30.8178V27.3984C46.3776 27.8395 51.2903 33.0122 51.2903 39.3226C51.2903 41.1955 50.8458 42.9633 50.0747 44.5431Z" fill="white"/>
<path d="M39.3226 34.1936C36.4939 34.1936 34.1936 36.4939 34.1936 39.3226C34.1936 42.1512 36.4939 44.4516 39.3226 44.4516C42.1512 44.4516 44.4516 42.1512 44.4516 39.3226C44.4516 36.4939 42.1512 34.1936 39.3226 34.1936ZM39.3226 42.7419C37.4368 42.7419 35.9032 41.2084 35.9032 39.3226C35.9032 37.4368 37.4368 35.9032 39.3226 35.9032C41.2084 35.9032 42.7419 37.4368 42.7419 39.3226C42.7419 41.2084 41.2084 42.7419 39.3226 42.7419Z" fill="white"/>
<path d="M3.41935 9.40323H5.12903V11.1129H3.41935V9.40323Z" fill="white"/>
<path d="M6.83871 9.40323H18.8065V11.1129H6.83871V9.40323Z" fill="white"/>
<path d="M3.41935 12.8226H5.12903V14.5323H3.41935V12.8226Z" fill="white"/>
<path d="M6.83871 12.8226H18.8065V14.5323H6.83871V12.8226Z" fill="white"/>
<path d="M3.41935 16.2419H5.12903V17.9516H3.41935V16.2419Z" fill="white"/>
<path d="M6.83871 16.2419H18.8065V17.9516H6.83871V16.2419Z" fill="white"/>
<path d="M3.41935 19.6613H5.12903V21.371H3.41935V19.6613Z" fill="white"/>
<path d="M6.83871 19.6613H18.8065V21.371H6.83871V19.6613Z" fill="white"/>
<path d="M3.41935 36.7581H8.54839V28.2097H3.41935V36.7581ZM5.12903 29.9194H6.83871V35.0484H5.12903V29.9194Z" fill="white"/>
<path d="M10.2581 36.7581H15.3871V29.9194H10.2581V36.7581ZM11.9677 31.629H13.6774V35.0484H11.9677V31.629Z" fill="white"/>
<path d="M17.0968 36.7581H22.2258V23.0806H17.0968V36.7581ZM18.8065 24.7903H20.5161V35.0484H18.8065V24.7903Z" fill="white"/>
</svg>

<svg width="53" height="53" fill="none" xmlns="http://www.w3.org/2000/svg"><path d="M47.871 28.663V11.899C50.766 11.482 53 8.992 53 5.984A5.991 5.991 0 0 0 47.016 0a5.991 5.991 0 0 0-5.984 5.984H0v34.193h25.689C26.133 47.321 32.07 53 39.323 53 46.864 53 53 46.864 53 39.323c0-4.308-2.006-8.151-5.129-10.66ZM47.016 1.71a4.279 4.279 0 0 1 4.274 4.274 4.28 4.28 0 0 1-4.274 4.274 4.28 4.28 0 0 1-4.274-4.274 4.279 4.279 0 0 1 4.274-4.274ZM1.71 7.694h39.574c.205.682.53 1.31.947 1.867l-5.229 5.229a2.529 2.529 0 0 0-1.099-.258c-.395 0-.764.097-1.098.258l-1.723-1.723c.16-.335.257-.704.257-1.1a2.568 2.568 0 0 0-2.565-2.564 2.568 2.568 0 0 0-2.564 2.565c0 .395.096.764.257 1.098l-4.287 4.287a2.541 2.541 0 0 0-1.1-.256 2.568 2.568 0 0 0-2.564 2.564 2.568 2.568 0 0 0 2.565 2.565 2.568 2.568 0 0 0 2.564-2.565c0-.395-.096-.764-.257-1.098l4.287-4.287c.335.16.704.256 1.1.256.394 0 .763-.096 1.098-.257l1.722 1.723a2.54 2.54 0 0 0-.256 1.099 2.568 2.568 0 0 0 2.564 2.564 2.568 2.568 0 0 0 2.565-2.564c0-.395-.097-.765-.258-1.099l5.23-5.228c.782.587 1.71.984 2.721 1.13v15.597a13.57 13.57 0 0 0-6.838-1.852c-4.087 0-7.75 1.81-10.259 4.662V26.5h-5.128v10.258h1.959c-.106.558-.17 1.13-.206 1.71H1.709V7.694Zm34.193 8.548a.856.856 0 0 1 0 1.71.856.856 0 0 1 0-1.71Zm-5.984-4.274a.856.856 0 1 1 1.712.001.856.856 0 0 1-1.712-.001Zm-5.983 7.693a.856.856 0 1 1-1.712-.001.856.856 0 0 1 1.712.001Zm15.387 26.5a6.847 6.847 0 0 1-6.84-6.838 6.847 6.847 0 0 1 6.84-6.84 6.847 6.847 0 0 1 6.838 6.84 6.847 6.847 0 0 1-6.838 6.838ZM27.355 32.715c-.41.74-.748 1.52-1.017 2.333h-.693V28.21h1.71v4.505Zm11.113-5.317v3.42c-4.314.43-7.694 4.08-7.694 8.505 0 1.25.277 2.436.762 3.508l-2.966 1.712a11.867 11.867 0 0 1-1.215-5.22c0-6.31 4.913-11.483 11.113-11.925Zm.855 23.892c-4.116 0-7.752-2.088-9.906-5.261l2.977-1.72c1.554 2.153 4.077 3.562 6.929 3.562 2.851 0 5.374-1.409 6.928-3.561l2.977 1.719c-2.154 3.173-5.79 5.261-9.905 5.261Zm10.752-6.747-2.966-1.712a8.491 8.491 0 0 0 .762-3.508c0-4.425-3.38-8.075-7.694-8.505v-3.42c6.2.442 11.113 5.614 11.113 11.925 0 1.873-.444 3.64-1.215 5.22Z" fill="#fff"/><path d="M39.323 34.194a5.134 5.134 0 0 0-5.13 5.129c0 2.828 2.3 5.129 5.13 5.129 2.828 0 5.129-2.3 5.129-5.13 0-2.828-2.3-5.128-5.13-5.128Zm0 8.548a3.423 3.423 0 0 1-3.42-3.42 3.423 3.423 0 0 1 3.42-3.419 3.423 3.423 0 0 1 3.419 3.42 3.423 3.423 0 0 1-3.42 3.419ZM3.42 9.403h1.709v1.71h-1.71v-1.71ZM6.839 9.403h11.968v1.71H6.838v-1.71ZM3.42 12.823h1.709v1.71h-1.71v-1.71ZM6.839 12.823h11.968v1.71H6.838v-1.71ZM3.42 16.242h1.709v1.71h-1.71v-1.71ZM6.839 16.242h11.968v1.71H6.838v-1.71ZM3.42 19.661h1.709v1.71h-1.71v-1.71ZM6.839 19.661h11.968v1.71H6.838v-1.71ZM3.42 36.758h5.128V28.21H3.42v8.548Zm1.709-6.839h1.71v5.13h-1.71v-5.13ZM10.258 36.758h5.13V29.92h-5.13v6.84Zm1.71-5.129h1.71v3.42h-1.71v-3.42ZM17.097 36.758h5.129V23.081h-5.13v13.677Zm1.71-11.968h1.71v10.258h-1.71V24.79Z" fill="#fff"/></svg>
